frontend/src/assets/svgs/social/facebook.svg

<svg viewBox="0 0 32 32" fill="none" xmlns="http://www.w3.org/2000/svg">
<path fill-rule="evenodd" clip-rule="evenodd" d="M0 16.0893C0 24.044 5.77733 30.6587 13.3333 32V20.444H9.33333V16H13.3333V12.444C13.3333 8.444 15.9107 6.22267 19.556 6.22267C20.7107 6.22267 21.956 6.4 23.1107 6.57733V10.6667H21.0667C19.1107 10.6667 18.6667 11.644 18.6667 12.8893V16H22.9333L22.2227 20.444H18.6667V32C26.2227 30.6587 32 24.0453 32 16.0893C32 7.24 24.8 0 16 0C7.2 0 0 7.24 0 16.0893Z" fill="currentColor"/>
</svg>

<svg viewBox="0 0 32 32" fill="none" xmlns="http://www.w3.org/2000/svg"><path fill-rule="evenodd" clip-rule="evenodd" d="M0 16.09C0 24.043 5.777 30.658 13.333 32V20.444h-4V16h4v-3.556c0-4 2.578-6.221 6.223-6.221 1.155 0 2.4.177 3.555.354v4.09h-2.044c-1.956 0-2.4.977-2.4 2.222V16h4.266l-.71 4.444h-3.556V32C26.223 30.659 32 24.045 32 16.09 32 7.24 24.8 0 16 0S0 7.24 0 16.09Z" fill="currentColor"/></svg>
